ukui-icon-theme/48x48/devices/drive-harddisk-system.svg

<svg xmlns="http://www.w3.org/2000/svg" xmlns:xlink="http://www.w3.org/1999/xlink" viewBox="0 0 48 48"><defs><style>.cls-1{opacity:0.2;}.cls-2{opacity:0.08;}.cls-3{opacity:0.1;}.cls-4{fill:#263238;}.cls-5{fill:#e0e0e0;}.cls-6{fill:#9e9e9e;opacity:0.25;}.cls-6,.cls-8{isolation:isolate;}.cls-7{fill:#455a64;}.cls-8{fill:#fff;opacity:0.45;}.cls-9{fill:url(#linear-gradient);}.cls-10{fill:url(#linear-gradient-2);}.cls-11{fill:#606060;}</style><linearGradient id="linear-gradient" x1="-2169.59" y1="-3448.46" x2="-2169.59" y2="-3446.59" gradientTransform="matrix(1, 0, 0, -1, 2185.95, -3408.31)" gradientUnits="userSpaceOnUse"><stop offset="0" stop-color="#455a64"/><stop offset="0.21" stop-color="#36474f"/><stop offset="1"/></linearGradient><linearGradient id="linear-gradient-2" x1="-2148.64" y1="-3448.46" x2="-2148.64" y2="-3446.59" gradientTransform="matrix(1, 0, 0, -1, 2185.95, -3408.31)" gradientUnits="userSpaceOnUse"><stop offset="0" stop-color="#38a3e7"/><stop offset="1" stop-color="#1976d2"/></linearGradient></defs><title>画板 22</title><g id="开始菜单应用图标"><g id="硬盘"><g id="_48" data-name="48"><polygon class="cls-1" points="2 43.7 2 35.92 6.84 4.3 40.03 4.3 45.48 33.01 46 35.81 46 43.7 2 43.7"/><polygon class="cls-2" points="2 45.7 2 36.85 6.98 4.3 41.86 4.3 47.47 33.83 48 36.72 48 45.7 2 45.7"/><polygon class="cls-3" points="3 44.7 3 36.92 7.84 5.3 41.03 5.3 46.48 34.01 47 36.81 47 44.7 3 44.7"/><g id="g4"><g id="g6"><path id="path10" class="cls-4" d="M3.52,36v6.2h41V36Z"/><polygon class="cls-5" points="44.02 33.3 38.72 5.8 8.12 5.9 3.92 33.3 44.02 33.3"/><polygon class="cls-6" points="44.02 33.3 38.72 5.8 28.02 5.8 21.72 33.3 44.02 33.3"/><polygon class="cls-7" points="3.92 33.3 3.52 36 44.52 36 44.02 33.3 3.92 33.3"/><polygon class="cls-8" points="10.62 33.3 12 5.89 9.56 5.89 5.42 33.3 10.62 33.3"/></g><g id="g12"><path id="path14" class="cls-9" d="M25.9,40.14H6.8v-1.9H25.9Z"/><path id="path16" class="cls-10" d="M35.8,40.14h3v-1.9h-3Z"/></g></g><path class="cls-11" d="M38.72,5.8,44,33.3l.5,2.7v6.2h-41V36l.4-2.7L8.12,5.9l30.6-.1m.41-.5h-.41l-30.6.1H7.69l-.06.42-4.2,27.4L3,35.93V42.7H45V35.91l-.5-2.7-5.3-27.5-.08-.41Z"/></g></g></g></svg>

<?xml version="1.0" encoding="iso-8859-1"?>
<!-- Generator: Adobe Illustrator 21.0.0, SVG Export Plug-In . SVG Version: 6.00 Build 0)  -->
<svg version="1.1" id="&#x56FE;&#x5C42;_1" xmlns="http://www.w3.org/2000/svg" xmlns:xlink="http://www.w3.org/1999/xlink" x="0px"
	 y="0px" viewBox="0 0 48 48" style="enable-background:new 0 0 48 48;" xml:space="preserve">
<title>画板 22</title>
<g id="&#x5F00;&#x59CB;&#x83DC;&#x5355;&#x5E94;&#x7528;&#x56FE;&#x6807;">
	<g id="&#x786C;&#x76D8;">
		<g id="_48">
			<polygon style="opacity:0.2;enable-background:new    ;" points="2,43.7 2,35.92 6.84,4.3 40.03,4.3 45.48,33.01 46,35.81 
				46,43.7 			"/>
			<polygon style="opacity:0.08;enable-background:new    ;" points="2,45.7 2,36.85 6.98,4.3 41.86,4.3 47.47,33.83 48,36.72 
				48,45.7 			"/>
			<polygon style="opacity:0.1;enable-background:new    ;" points="3,44.7 3,36.92 7.84,5.3 41.03,5.3 46.48,34.01 47,36.81 
				47,44.7 			"/>
			<g id="g4">
				<g id="g6">
					<path id="path10" style="fill:#263238;" d="M3.52,36v6.2h41V36H3.52z"/>
					<polygon style="fill:#E0E0E0;" points="44.02,33.3 38.72,5.8 8.12,5.9 3.92,33.3 					"/>
					<polygon style="opacity:0.25;fill:#9E9E9E;enable-background:new    ;" points="44.02,33.3 38.72,5.8 28.02,5.8 21.72,33.3 
											"/>
					<polygon style="fill:#455A64;" points="3.92,33.3 3.52,36 44.52,36 44.02,33.3 					"/>
					<polygon style="opacity:0.45;fill:#FFFFFF;enable-background:new    ;" points="10.62,33.3 12,5.89 9.56,5.89 5.42,33.3 					
						"/>
				</g>
				<g id="g12">
					
						<linearGradient id="path14_1_" gradientUnits="userSpaceOnUse" x1="-2169.5999" y1="3848.46" x2="-2169.5999" y2="3846.5901" gradientTransform="matrix(1 0 0 1 2185.95 -3808.3101)">
						<stop  offset="0" style="stop-color:#455A64"/>
						<stop  offset="0.21" style="stop-color:#36474F"/>
						<stop  offset="1" style="stop-color:#000000"/>
					</linearGradient>
					<path id="path14" style="fill:url(#path14_1_);" d="M25.9,40.14H6.8v-1.9h19.1V40.14z"/>
					
						<linearGradient id="path16_1_" gradientUnits="userSpaceOnUse" x1="-2148.6499" y1="3848.46" x2="-2148.6499" y2="3846.5901" gradientTransform="matrix(1 0 0 1 2185.95 -3808.3101)">
						<stop  offset="0" style="stop-color:#38A3E7"/>
						<stop  offset="1" style="stop-color:#1976D2"/>
					</linearGradient>
					<path id="path16" style="fill:url(#path16_1_);" d="M35.8,40.14h3v-1.9h-3V40.14z"/>
				</g>
			</g>
			<path style="fill:#606060;" d="M38.72,5.8L44,33.3l0.5,2.7v6.2h-41V36l0.4-2.7L8.12,5.9L38.72,5.8 M39.13,5.3h-0.41L8.12,5.4
				H7.69L7.63,5.82l-4.2,27.4L3,35.93v6.77h42v-6.79l-0.5-2.7l-5.3-27.5L39.12,5.3L39.13,5.3z"/>
		</g>
	</g>
</g>
</svg>
